X: 1395
T: Down by the G.P.O.
B: australian traditional tunes wiki
M:2/4
L:1/16
R: Reel
Q: 1/4=100
K:G
V:1 
(3cdc|:"G"(3BdB Gd DG B,G|"C"F2E2 E2AG|"D7"FGAB cAEF|"G"(3ABA GB d3G|
(3BdB Gd DG (3B,DG|"C"F2E2 E2AG|"D7"FGAB cAEF|"G"G2G2 G3G:|
"G"(3BcBA2 BGdc|B2A2 "D"F3G|A2(3GAG EFGA|"G"(3BcB GB "D"d3A|
"G"(3BcBA2 BGdc|B2A2 "D"F3G|"C"A2 (3GAG F2(3EFE|"D"D2d2 d2z2||
% abcbook-tune_id 6342d53a54bead8a5fd63c96


% abcbook-boost 0
% abcbook-tablature 
% abcbook-transpose 
% abcbook-lastupdated 1665324362937
% abcbook-soundfonts 
% abcbook-repeats 1
% NFF Book 2008

